X: 178
T: Lads Of Laois
R: reel
M: C|
L: 1/8
K:Edor
"Em"E~B,3 EGFE|"D"QD~A,3 DEFD|"Em"E2ED EFGA|B2 eB "D"dBAF|
"Em"E~B,3 EGFE|"D"D~A,3 DEFD|"Em"E2 BE dEBE|"D" DEFA "Em"BEE2:|
|: "Em"e~B3 egfe|"D"defa "G"gfed|"Bm"(3Bcd ef "G"~g3e|"D"fgaf "G"gfed|
"Em"e~B3 GBFB|EBBA "Bm"(3Bcd ef|"G"~g3e "D"~f3d|1"Em" efed BA Bd:|2 "Em"Qefed "D"BAFD|]


